flaticon/office/id-card-1.svg

<svg xmlns="http://www.w3.org/2000/svg" width="32" height="32" viewBox="0 0 24 24">
    <path d="M 22 7 L 2 7 C 1.761719 7 1.601562 7.160156 1.601562 7.398438 L 1.601562 20.199219 C 1.601562 20.441406 1.761719 20.601562 2 20.601562 L 22 20.601562 C 22.238281 20.601562 22.398438 20.441406 22.398438 20.199219 L 22.398438 7.398438 C 22.398438 7.160156 22.238281 7 22 7 Z M 21.601562 19.800781 L 2.398438 19.800781 L 2.398438 7.800781 L 21.601562 7.800781 Z M 21.601562 19.800781"/>
    <path d="M13.734375 18.027344C13.753906 18.046875 13.777344 18.0625 13.800781 18.078125 14.480469 18.421875 15.160156 18.582031 15.875 18.597656 15.914062 18.597656 15.957031 18.601562 16 18.601562 16.042969 18.601562 16.085938 18.597656 16.125 18.597656 16.839844 18.582031 17.519531 18.421875 18.199219 18.078125 18.222656 18.0625 18.246094 18.046875 18.265625 18.027344 19.769531 17.214844 20.800781 15.621094 20.800781 13.800781 20.800781 11.160156 18.640625 9 16 9 13.359375 9 11.199219 11.160156 11.199219 13.800781 11.199219 15.621094 12.230469 17.214844 13.734375 18.027344zM15.199219 12.199219C15.199219 11.761719 15.558594 11.398438 16 11.398438 16.441406 11.398438 16.800781 11.761719 16.800781 12.199219 16.800781 12.640625 16.441406 13 16 13 15.558594 13 15.199219 12.640625 15.199219 12.199219zM16 13.800781C16.878906 13.800781 17.601562 14.519531 17.601562 15.398438L17.601562 17.464844C17.109375 17.679688 16.566406 17.800781 16 17.800781 15.433594 17.800781 14.890625 17.679688 14.398438 17.464844L14.398438 15.398438C14.398438 14.519531 15.121094 13.800781 16 13.800781zM16 9.800781C18.199219 9.800781 20 11.601562 20 13.800781 20 15.101562 19.371094 16.261719 18.398438 16.996094L18.398438 15.398438C18.398438 14.5 17.898438 13.710938 17.160156 13.300781 17.429688 13.011719 17.601562 12.625 17.601562 12.199219 17.601562 11.320312 16.878906 10.601562 16 10.601562 15.121094 10.601562 14.398438 11.320312 14.398438 12.199219 14.398438 12.625 14.570312 13.011719 14.839844 13.300781 14.101562 13.710938 13.601562 14.5 13.601562 15.398438L13.601562 16.996094C12.628906 16.261719 12 15.101562 12 13.800781 12 11.601562 13.800781 9.800781 16 9.800781zM3.601562 12.601562L4 12.601562C4.238281 12.601562 4.398438 12.441406 4.398438 12.199219 4.398438 11.960938 4.238281 11.800781 4 11.800781L3.601562 11.800781C3.359375 11.800781 3.199219 11.960938 3.199219 12.199219 3.199219 12.441406 3.359375 12.601562 3.601562 12.601562zM7.601562 11.800781L5.601562 11.800781C5.359375 11.800781 5.199219 11.960938 5.199219 12.199219 5.199219 12.441406 5.359375 12.601562 5.601562 12.601562L7.601562 12.601562C7.839844 12.601562 8 12.441406 8 12.199219 8 11.960938 7.839844 11.800781 7.601562 11.800781zM9.199219 12.601562L10 12.601562C10.238281 12.601562 10.398438 12.441406 10.398438 12.199219 10.398438 11.960938 10.238281 11.800781 10 11.800781L9.199219 11.800781C8.960938 11.800781 8.800781 11.960938 8.800781 12.199219 8.800781 12.441406 8.960938 12.601562 9.199219 12.601562zM10 14.199219L8.398438 14.199219C8.160156 14.199219 8 14.359375 8 14.601562 8 14.839844 8.160156 15 8.398438 15L10 15C10.238281 15 10.398438 14.839844 10.398438 14.601562 10.398438 14.359375 10.238281 14.199219 10 14.199219zM3.601562 15L6.800781 15C7.039062 15 7.199219 14.839844 7.199219 14.601562 7.199219 14.359375 7.039062 14.199219 6.800781 14.199219L3.601562 14.199219C3.359375 14.199219 3.199219 14.359375 3.199219 14.601562 3.199219 14.839844 3.359375 15 3.601562 15zM3.601562 17.398438L5.601562 17.398438C5.839844 17.398438 6 17.238281 6 17 6 16.761719 5.839844 16.601562 5.601562 16.601562L3.601562 16.601562C3.359375 16.601562 3.199219 16.761719 3.199219 17 3.199219 17.238281 3.359375 17.398438 3.601562 17.398438zM10 16.601562L7.199219 16.601562C6.960938 16.601562 6.800781 16.761719 6.800781 17 6.800781 17.238281 6.960938 17.398438 7.199219 17.398438L10 17.398438C10.238281 17.398438 10.398438 17.238281 10.398438 17 10.398438 16.761719 10.238281 16.601562 10 16.601562zM5.199219 10.199219L8.398438 10.199219C8.640625 10.199219 8.800781 10.039062 8.800781 9.800781 8.800781 9.558594 8.640625 9.398438 8.398438 9.398438L5.199219 9.398438C4.960938 9.398438 4.800781 9.558594 4.800781 9.800781 4.800781 10.039062 4.960938 10.199219 5.199219 10.199219zM5.199219 10.199219"/>
    <path d="M 22.800781 5 L 13.601562 5 L 13.601562 3 C 13.601562 2.121094 12.878906 1.398438 12 1.398438 C 11.121094 1.398438 10.398438 2.121094 10.398438 3 L 10.398438 5 L 1.199219 5 C 0.519531 5 0 5.519531 0 6.199219 L 0 21.398438 C 0 22.078125 0.519531 22.601562 1.199219 22.601562 L 22.800781 22.601562 C 23.480469 22.601562 24 22.078125 24 21.398438 L 24 6.199219 C 24 5.519531 23.480469 5 22.800781 5 Z M 11.199219 5.398438 L 11.199219 3.398438 L 12.800781 3.398438 L 12.800781 5.800781 L 11.199219 5.800781 Z M 12.039062 2.199219 C 12.320312 2.199219 12.601562 2.359375 12.71875 2.601562 L 11.320312 2.601562 C 11.441406 2.359375 11.761719 2.199219 12.039062 2.199219 Z M 23.199219 21.398438 C 23.199219 21.640625 23.039062 21.800781 22.800781 21.800781 L 1.199219 21.800781 C 0.960938 21.800781 0.800781 21.640625 0.800781 21.398438 L 0.800781 6.199219 C 0.800781 5.960938 0.960938 5.800781 1.199219 5.800781 L 10.398438 5.800781 L 10.398438 6.199219 C 10.398438 6.441406 10.558594 6.601562 10.800781 6.601562 L 13.199219 6.601562 C 13.441406 6.601562 13.601562 6.441406 13.601562 6.199219 L 13.601562 5.800781 L 22.800781 5.800781 C 23.039062 5.800781 23.199219 5.960938 23.199219 6.199219 Z M 23.199219 21.398438"/>
</svg>

<svg xmlns="http://www.w3.org/2000/svg" width="32" height="32" viewBox="0 0 24 24">
    <path d="M22 7H2c-.238 0-.398.16-.398.398V20.2c0 .242.16.403.398.403h20c.238 0 .398-.16.398-.403V7.4c0-.239-.16-.399-.398-.399zm-.398 12.8H2.398v-12h19.204zm0 0"/>
    <path d="M13.734 18.027c.02.02.043.035.067.051.68.344 1.36.504 2.074.52.04 0 .082.004.125.004s.086-.004.125-.004a4.723 4.723 0 0 0 2.074-.52c.024-.015.047-.031.067-.05A4.816 4.816 0 0 0 20.8 13.8C20.8 11.16 18.64 9 16 9c-2.64 0-4.8 2.16-4.8 4.8a4.816 4.816 0 0 0 2.534 4.227zM15.2 12.2c0-.437.36-.8.801-.8.441 0 .8.363.8.8a.802.802 0 0 1-1.6 0zM16 13.801c.879 0 1.602.719 1.602 1.597v2.067a4 4 0 0 1-3.204 0v-2.067c0-.878.723-1.597 1.602-1.597zm0-4c2.2 0 4 1.8 4 4a4 4 0 0 1-1.602 3.195v-1.598c0-.898-.5-1.687-1.238-2.097.27-.29.442-.676.442-1.102 0-.879-.723-1.597-1.602-1.597-.879 0-1.602.718-1.602 1.597 0 .426.172.813.442 1.102a2.403 2.403 0 0 0-1.238 2.097v1.598A4 4 0 0 1 12 13.801c0-2.2 1.8-4 4-4zm0 0M3.602 12.602H4c.238 0 .398-.16.398-.403 0-.238-.16-.398-.398-.398h-.398c-.243 0-.403.16-.403.398 0 .242.16.403.403.403zm0 0M7.602 11.8h-2c-.243 0-.403.16-.403.4 0 .241.16.402.403.402h2c.238 0 .398-.16.398-.403 0-.238-.16-.398-.398-.398zm0 0M9.2 12.602h.8c.238 0 .398-.16.398-.403 0-.238-.16-.398-.398-.398h-.8c-.24 0-.4.16-.4.398 0 .242.16.403.4.403zm0 0M10 14.2H8.398c-.238 0-.398.16-.398.402 0 .238.16.398.398.398H10c.238 0 .398-.16.398-.398 0-.243-.16-.403-.398-.403zm0 0M3.602 15H6.8c.238 0 .398-.16.398-.398 0-.243-.16-.403-.398-.403H3.6c-.242 0-.402.16-.402.403 0 .238.16.398.403.398zm0 0M3.602 17.398h2c.238 0 .398-.16.398-.398 0-.238-.16-.398-.398-.398h-2c-.243 0-.403.16-.403.398 0 .238.16.398.403.398zm0 0M10 16.602H7.2c-.24 0-.4.16-.4.398 0 .238.16.398.4.398H10c.238 0 .398-.16.398-.398 0-.238-.16-.398-.398-.398zm0 0M5.2 10.2h3.198c.243 0 .403-.16.403-.4 0-.241-.16-.402-.403-.402H5.2c-.238 0-.398.16-.398.403 0 .238.16.398.398.398zm0 0"/>
    <path d="M22.8 5h-9.198V3c0-.879-.723-1.602-1.602-1.602-.879 0-1.602.723-1.602 1.602v2H1.2C.52 5 0 5.52 0 6.2v15.198c0 .68.52 1.204 1.2 1.204h21.6c.68 0 1.2-.524 1.2-1.204V6.2C24 5.52 23.48 5 22.8 5zm-11.6.398v-2h1.6v2.403h-1.6zm.84-3.199c.28 0 .562.16.679.403H11.32c.121-.243.442-.403.72-.403zM23.2 21.4c0 .242-.16.402-.4.402H1.2c-.24 0-.4-.16-.4-.403V6.2c0-.238.16-.398.4-.398h9.198v.398c0 .242.16.403.403.403h2.398c.242 0 .403-.16.403-.403v-.398H22.8c.238 0 .398.16.398.398zm0 0"/>
</svg>
